src/assets/icon/person.svg

<svg width="28" height="28" viewBox="0 0 28 28" fill="none" xmlns="http://www.w3.org/2000/svg">
<mask id="mask0_408_11825" style="mask-type:alpha" maskUnits="userSpaceOnUse" x="0" y="0" width="28" height="28">
<rect width="28" height="28" fill="#D9D9D9"/>
</mask>
<g mask="url(#mask0_408_11825)">
<path d="M14 13.6408C12.8771 13.6408 11.9158 13.241 11.1163 12.4415C10.3165 11.6417 9.91667 10.6804 9.91667 9.55745C9.91667 8.43454 10.3165 7.4733 11.1163 6.67375C11.9158 5.874 12.8771 5.47412 14 5.47412C15.1229 5.47412 16.0842 5.874 16.8837 6.67375C17.6835 7.4733 18.0833 8.43454 18.0833 9.55745C18.0833 10.6804 17.6835 11.6417 16.8837 12.4415C16.0842 13.241 15.1229 13.6408 14 13.6408ZM5.25 20.7531V19.9317C5.25 19.3605 5.40517 18.8314 5.7155 18.3445C6.02583 17.8576 6.44058 17.4833 6.95975 17.2216C8.11281 16.6563 9.27607 16.2323 10.4495 15.9496C11.623 15.6669 12.8065 15.5255 14 15.5255C15.1935 15.5255 16.377 15.6669 17.5505 15.9496C18.7239 16.2323 19.8872 16.6563 21.0402 17.2216C21.5594 17.4833 21.9742 17.8576 22.2845 18.3445C22.5948 18.8314 22.75 19.3605 22.75 19.9317V20.7531C22.75 21.245 22.5776 21.6635 22.2329 22.0084C21.8881 22.3532 21.4697 22.5255 20.9775 22.5255H7.02246C6.53032 22.5255 6.11187 22.3532 5.76712 22.0084C5.42237 21.6635 5.25 21.245 5.25 20.7531ZM7 20.7755H21V19.9317C21 19.6955 20.9316 19.4767 20.7947 19.2755C20.6578 19.0744 20.472 18.9103 20.2373 18.7832C19.232 18.2881 18.2071 17.913 17.1625 17.6579C16.1178 17.403 15.0636 17.2755 14 17.2755C12.9364 17.2755 11.8822 17.403 10.8375 17.6579C9.7929 17.913 8.76799 18.2881 7.76271 18.7832C7.52801 18.9103 7.34222 19.0744 7.20533 19.2755C7.06844 19.4767 7 19.6955 7 19.9317V20.7755ZM14 11.8908C14.6417 11.8908 15.191 11.6623 15.6479 11.2054C16.1049 10.7484 16.3333 10.1991 16.3333 9.55745C16.3333 8.91579 16.1049 8.36648 15.6479 7.90954C15.191 7.45259 14.6417 7.22412 14 7.22412C13.3583 7.22412 12.809 7.45259 12.3521 7.90954C11.8951 8.36648 11.6667 8.91579 11.6667 9.55745C11.6667 10.1991 11.8951 10.7484 12.3521 11.2054C12.809 11.6623 13.3583 11.8908 14 11.8908Z" fill="black"/>
</g>
</svg>

<svg xmlns="http://www.w3.org/2000/svg" width="28" height="28" fill="none" xmlns:v="https://vecta.io/nano"><mask id="A" maskUnits="userSpaceOnUse" x="0" y="0" width="28" height="28" mask-type="alpha"><path fill="#d9d9d9" d="M0 0h28v28H0z"/></mask><g mask="url(#A)"><path d="M14 13.641a3.93 3.93 0 0 1-2.884-1.199 3.93 3.93 0 0 1-1.2-2.884 3.93 3.93 0 0 1 1.2-2.884A3.93 3.93 0 0 1 14 5.474a3.93 3.93 0 0 1 2.884 1.2 3.93 3.93 0 0 1 1.2 2.884 3.93 3.93 0 0 1-1.2 2.884A3.93 3.93 0 0 1 14 13.641zm-8.75 7.112v-.821c0-.571.155-1.1.465-1.587s.725-.861 1.244-1.123c1.153-.565 2.316-.989 3.49-1.272a15.11 15.11 0 0 1 7.101 0c1.173.283 2.337.707 3.49 1.272.519.262.934.636 1.244 1.123s.465 1.016.465 1.587v.821a1.71 1.71 0 0 1-.517 1.255 1.71 1.71 0 0 1-1.255.517H7.022a1.71 1.71 0 0 1-1.255-.517 1.71 1.71 0 0 1-.517-1.255zm1.75.022h14v-.844c0-.236-.068-.455-.205-.656s-.323-.365-.557-.492c-1.005-.495-2.03-.87-3.075-1.125s-2.099-.382-3.163-.382-2.118.127-3.162.382-2.07.63-3.075 1.125c-.235.127-.42.291-.557.492s-.205.42-.205.656v.844zm7-8.885c.642 0 1.191-.229 1.648-.685s.685-1.006.685-1.648-.228-1.191-.685-1.648-1.006-.685-1.648-.685-1.191.228-1.648.685-.685 1.006-.685 1.648.228 1.191.685 1.648 1.006.685 1.648.685z" fill="#000"/></g></svg>
